icons/v-light.svg

<svg xmlns="http://www.w3.org/2000/svg" width="256" height="256" fill="none" viewBox="0 0 256 256"><rect width="256" height="256" fill="#F4F2ED" rx="60"/><path fill="#536B8A" d="M159.907 222.623L227.655 34.2294C228.803 31.0342 226.993 28.7045 223.613 29.0304L170.335 34.1627C166.956 34.4887 163.305 37.3561 162.189 40.562L99.4815 220.606C98.3642 223.812 100.214 226.415 103.609 226.415H155.467C157.164 226.415 159.009 225.118 159.584 223.52L159.907 222.623Z"/><g filter="url(#filter0_f_148_1044)"><path fill="#000" d="M152.178 223.52L123.971 142.035L128 139.516L156.711 222.623L152.178 223.52Z"/></g><path fill="#5D87BF" d="M32.3873 29.0304L85.6647 34.1627C89.0442 34.4887 92.6987 37.3547 93.8207 40.5592L157.855 223.512C158.415 225.114 157.492 226.415 155.794 226.415H103.609C100.214 226.415 96.5244 223.821 95.3754 220.626L28.3453 34.2294C27.1967 31.0342 29.0074 28.7045 32.3873 29.0304Z"/><defs><filter id="filter0_f_148_1044" width="58.502" height="109.765" x="111.09" y="126.635" color-interpolation-filters="sRGB" filterUnits="userSpaceOnUse"><feFlood flood-opacity="0" result="BackgroundImageFix"/><feBlend in="SourceGraphic" in2="BackgroundImageFix" mode="normal" result="shape"/><feGaussianBlur result="effect1_foregroundBlur_148_1044" stdDeviation="6.44"/></filter></defs></svg>

<svg xmlns="http://www.w3.org/2000/svg" width="256" height="256" fill="none"><rect width="256" height="256" fill="#F4F2ED" rx="60"/><path fill="#536B8A" d="m159.907 222.623 67.748-188.394c1.148-3.195-.662-5.524-4.042-5.199l-53.278 5.133c-3.379.326-7.03 3.193-8.146 6.399L99.482 220.606c-1.118 3.206.732 5.809 4.127 5.809h51.858c1.697 0 3.542-1.297 4.117-2.895z"/><g filter="url(#filter0_f_148_1044)"><path fill="#000" d="m152.178 223.52-28.207-81.485 4.029-2.519 28.711 83.107z"/></g><path fill="#5D87BF" d="m32.387 29.03 53.278 5.133c3.38.326 7.034 3.192 8.156 6.396l64.034 182.953c.56 1.602-.363 2.903-2.061 2.903h-52.185c-3.395 0-7.085-2.594-8.234-5.789L28.345 34.229c-1.148-3.195.662-5.524 4.042-5.199"/><defs><filter id="filter0_f_148_1044" width="58.502" height="109.765" x="111.09" y="126.635" color-interpolation-filters="sRGB" filterUnits="userSpaceOnUse"><feFlood flood-opacity="0" result="BackgroundImageFix"/><feBlend in="SourceGraphic" in2="BackgroundImageFix" result="shape"/><feGaussianBlur result="effect1_foregroundBlur_148_1044" stdDeviation="6.44"/></filter></defs></svg>
